packages/foundations/assets/icons/functional/images/transportation/electric_car_28_inverted.svg

<svg width="28" height="28" viewBox="0 0 28 28" fill="none" xmlns="http://www.w3.org/2000/svg">
<g clip-path="url(#clip0_2214_6726)">
<path fill-rule="evenodd" clip-rule="evenodd" d="M19.6335 4.53322C20.4065 4.57067 21.1668 4.90992 21.6347 5.53886C21.8799 5.86842 21.8115 6.33434 21.482 6.57952C21.1799 6.80427 20.7028 6.77282 20.4413 6.42674C20.2759 6.20442 19.9894 6.04384 19.6335 6.02072C17.7738 5.94358 15.8923 5.85838 14.0217 5.8591C12.1366 5.85983 10.2437 5.90185 8.36622 6.02509C7.93847 6.05755 7.5013 6.35258 7.39081 6.80595C7.12921 7.89042 6.74231 9.41332 6.23012 11.3747C9.67494 11.2914 12.2649 11.2498 13.9999 11.2499C14.5706 11.25 15.3243 11.268 15.7514 11.2837C15.7998 9.87647 16.9559 8.75054 18.3749 8.75054C18.3749 8.31304 18.8124 7.87554 19.2499 7.87554H21.8749C22.3124 7.87554 22.7499 8.31304 22.7499 8.75054C24.1996 8.75054 25.3749 9.9258 25.3749 11.3755C25.8124 11.3755 26.2499 11.813 26.2499 12.2505C26.2499 12.5422 26.2499 12.8339 26.2499 13.1255C26.2499 13.563 25.8124 14.0005 25.3742 13.9997C25.3747 14.5836 25.3749 16.9172 25.3749 21.0005C25.3749 22.4503 24.1996 23.6255 22.7499 23.6255H18.3749C17.0161 23.6255 15.8985 22.5932 15.7635 21.27C15.3671 21.294 14.703 21.3059 13.7712 21.3059C12.8395 21.3059 10.874 21.2041 7.87461 21.0005L7.87486 21.8755C7.87486 22.2656 7.3899 22.7505 6.99986 22.7505H5.24986C4.81236 22.7505 4.37486 22.313 4.37486 21.8755L4.36104 19.8631C4.18233 19.5669 4.06164 19.2148 4.00401 18.8185L3.69134 15.6209C3.63475 14.7558 3.61236 14.2153 3.62417 13.9995L2.59625 14.0005C2.11237 14.0005 1.75012 13.5787 1.75012 13.0957V12.2207C1.75012 11.7368 2.11237 11.3755 2.59625 11.3755L4.69887 11.3747L5.94693 6.4484C6.21184 5.38872 7.14125 4.59181 8.36622 4.53759C11.1729 4.44936 12.6122 4.36375 14.0314 4.37554C15.4294 4.38715 17.3835 4.45583 19.6335 4.53322ZM22.7499 10.238C21.4158 10.238 19.9574 10.238 18.3749 10.238C17.7859 10.238 17.2367 10.7374 17.2367 11.3755C17.2367 12.6383 17.237 15.8467 17.2374 21.0005C17.2374 21.5895 17.7879 22.138 18.3749 22.138C18.8628 22.138 20.3211 22.138 22.7499 22.138C23.3388 22.138 23.8095 21.748 23.8874 21.0005C23.8874 19.738 23.8874 16.5296 23.8874 11.3755C23.8874 10.7866 23.3495 10.238 22.7499 10.238ZM10.8151 15.5985C10.4411 15.6609 10.1467 15.9943 10.2037 16.4544C10.2748 16.892 10.3477 17.3295 10.4225 17.7669C10.4768 18.093 10.8151 18.3884 11.1561 18.3884C11.6962 18.388 13.2273 18.3878 15.7492 18.3878V16.9012L11.8053 16.9014L11.671 16.2099C11.6087 15.8359 11.1891 15.5362 10.8151 15.5985ZM4.94838 15.55C4.9055 15.9267 5.14829 16.2981 5.60325 16.3731C6.1507 16.4388 6.69601 16.5002 7.79075 16.622C8.20901 16.6725 8.57096 16.3439 8.61384 15.9672C8.65672 15.5904 8.41059 15.2149 7.95897 15.1441C6.86691 15.017 6.86621 15.0169 5.77147 14.8951C5.33212 14.8511 4.99126 15.1733 4.94838 15.55ZM20.4129 13.2697C20.575 12.9455 20.9692 12.8141 21.2933 12.9762C21.5905 13.1248 21.7596 13.5361 21.5868 13.8567C21.3314 14.3783 21.052 14.9367 20.7487 15.5319C20.9175 15.5319 21.1424 15.5319 21.4232 15.5319C21.8444 15.5319 22.2829 15.9844 22.018 16.4943C21.6215 17.313 21.1861 18.1838 20.7118 19.1067C20.5497 19.4308 20.1555 19.5622 19.8314 19.4002C19.5342 19.2516 19.3619 18.8769 19.5379 18.5197C19.8159 17.9591 20.095 17.4007 20.3751 16.8444C20.1467 16.8444 19.9222 16.8444 19.7015 16.8444C19.3706 16.8444 18.8429 16.4509 19.1067 15.882C19.2826 15.5028 19.718 14.632 20.4129 13.2697Z" fill="#1A1C1F"/>
</g>
<defs>
<clipPath id="clip0_2214_6726">
<rect width="28" height="28" fill="white"/>
</clipPath>
</defs>
</svg>

<svg xmlns="http://www.w3.org/2000/svg" width="28" height="28" fill="none"><g clip-path="url(#a)"><path fill="#1A1C1F" fill-rule="evenodd" d="M19.634 4.533c.773.038 1.533.377 2 1.006a.744.744 0 0 1-.152 1.04.753.753 0 0 1-1.04-.152c-.166-.223-.453-.383-.808-.406-1.86-.077-3.742-.163-5.612-.162-1.885 0-3.778.043-5.656.166-.428.033-.865.328-.975.78a269 269 0 0 1-1.16 4.57q5.166-.126 7.769-.125c.57 0 1.324.018 1.751.034a2.625 2.625 0 0 1 2.624-2.533c0-.438.437-.875.875-.875h2.625c.437 0 .875.437.875.875a2.625 2.625 0 0 1 2.625 2.625c.437 0 .875.437.875.875v.875c0 .437-.438.875-.876.874v7a2.625 2.625 0 0 1-2.624 2.625h-4.375a2.625 2.625 0 0 1-2.611-2.355q-.595.036-1.993.036T7.875 21v.875c0 .39-.485.875-.875.875H5.25c-.438 0-.875-.437-.875-.875l-.014-2.012a2.8 2.8 0 0 1-.357-1.044l-.313-3.198q-.085-1.298-.067-1.622l-1.028.002c-.484 0-.846-.422-.846-.905v-.875c0-.484.362-.845.846-.845l2.103-.001 1.248-4.927c.265-1.06 1.194-1.856 2.42-1.91 2.806-.089 4.245-.174 5.664-.162 1.398.011 3.353.08 5.603.157m3.116 5.705h-4.375c-.59 0-1.138.5-1.138 1.138V21c0 .588.55 1.137 1.138 1.137h4.375c.589 0 1.06-.39 1.137-1.138v-9.624c0-.59-.538-1.138-1.137-1.138m-11.935 5.36c-.374.063-.668.396-.611.856q.106.657.218 1.313c.055.326.393.621.734.621h4.593V16.9h-3.944l-.134-.691c-.062-.374-.482-.674-.856-.612m-5.867-.048c-.043.377.2.748.655.823.548.066 1.093.127 2.188.249.418.05.78-.278.823-.655s-.203-.752-.655-.823c-1.092-.127-1.093-.127-2.188-.249a.75.75 0 0 0-.823.655m15.465-2.28a.656.656 0 0 1 .88-.294c.297.149.467.56.294.88q-.384.782-.838 1.676h.674c.421 0 .86.452.595.962q-.594 1.229-1.306 2.613a.656.656 0 0 1-1.174-.587q.417-.841.837-1.676h-.674c-.33 0-.858-.393-.594-.962q.264-.57 1.306-2.612" clip-rule="evenodd"/></g><defs><clipPath id="a"><path fill="#fff" d="M0 0h28v28H0z"/></clipPath></defs></svg>
